**kern	**kern
*part1	*part1
*staff2	*staff1
*I"Piano	*
*clefF4	*clefG2
*k[b-e-a-]	*k[b-e-a-]
=1	=1
*^	*
8E-L	4.EE-]	4.b- 4.dd 4.ff
8BB-	.	.
8E-J	.	.
=	=	=
8BB-L	[4.EE-	4B- 4e- 4g
8E-	.	.
8BB-J	.	8G 8B- 8e-
=	=	=
8E-L	4.EE-]	4.B- 4.d 4.f
8BB-	.	.
8E-J	.	.
*	*	*clefF4
=	=	=
8BB-L	[4.EE-	[4.G [4.B-
8E-	.	.
8BB-J	.	.
=	=	=
8E-L	4.EE-]	4.G] 4.B-]
8BB-	.	.
8E-J	.	.
*v	*v	*
=	=
[4.BBB- [4.BB-	[4.D [4.F [4.B-
=	=
4.BBB-] 4.BB-]	4.D] 4.F] 4.B-]
=	=
[4.AAA-; [4.AA-	[4.E-; [4.A- [4.c
=	=
4AAA-] 4AA-]	8E-] 8A-] 8c]
.	4r
8r	.
=	=
*-	*-
!!!system-decoration: {(s1,s2)}
